raw-svg/link.svg

<svg viewBox="0 0 24 24" xmlns="http://www.w3.org/2000/svg"><path d="m7.23 18.25a4 4 0 0 1 -2.83-1.16 4.23 4.23 0 0 1 .15-5.95l3.76-3.79a4.44 4.44 0 0 1 3.11-1.35 4 4 0 0 1 2.83 1.2 4.25 4.25 0 0 1 -.15 6l-1.26 1.26a.75.75 0 1 1 -1.06-1.06l1.22-1.3a2.73 2.73 0 0 0 .14-3.84 2.77 2.77 0 0 0 -3.8.15l-3.73 3.78a2.74 2.74 0 0 0 -.15 3.81 2.5 2.5 0 0 0 2 .71.74.74 0 0 1 .81.67.75.75 0 0 1 -.67.82z"/><path d="m12.58 18a4 4 0 0 1 -2.83-1.2 4.25 4.25 0 0 1 .15-6l1.26-1.26a.75.75 0 1 1 1.06 1.06l-1.22 1.3a2.73 2.73 0 0 0 -.14 3.84 2.77 2.77 0 0 0 3.8-.15l3.77-3.78a2.74 2.74 0 0 0 .11-3.81 2.5 2.5 0 0 0 -2-.71.74.74 0 0 1 -.81-.67.75.75 0 0 1 .67-.82 4 4 0 0 1 3.2 1.11 4.23 4.23 0 0 1 -.15 5.95l-3.76 3.79a4.44 4.44 0 0 1 -3.11 1.35z"/></svg>

<svg xmlns="http://www.w3.org/2000/svg" viewBox="0 0 24 24"><g id="link"><path d="M7.23,18.25A4,4,0,0,1,4.4,17.09a4.23,4.23,0,0,1,.15-5.95L8.31,7.35A4.44,4.44,0,0,1,11.42,6,4,4,0,0,1,14.25,7.2a4.25,4.25,0,0,1-.15,6l-1.26,1.26a.75.75,0,1,1-1.06-1.06L13,12.1a2.73,2.73,0,0,0,.14-3.84,2.77,2.77,0,0,0-3.8.15L5.61,12.19A2.74,2.74,0,0,0,5.46,16a2.5,2.5,0,0,0,2,.71.74.74,0,0,1,.81.67.75.75,0,0,1-.67.82Z"/><path d="M12.58,18A4,4,0,0,1,9.75,16.8a4.25,4.25,0,0,1,.15-6l1.26-1.26a.75.75,0,1,1,1.06,1.06L11,11.9a2.73,2.73,0,0,0-.14,3.84,2.77,2.77,0,0,0,3.8-.15l3.77-3.78A2.74,2.74,0,0,0,18.54,8a2.5,2.5,0,0,0-2-.71.74.74,0,0,1-.81-.67.75.75,0,0,1,.67-.82A4,4,0,0,1,19.6,6.91a4.23,4.23,0,0,1-.15,5.95l-3.76,3.79A4.44,4.44,0,0,1,12.58,18Z"/></g></svg>
